X: 43
T: Quick Step
%R: reel, march
B: Urbani & Liston "A Selection of Scotch, English Irish, and Foreign Airs", Edinburgh 1800, p.17 #2
F: http://www.vwml.org/browse/browse-collections-dance-tune-books/browse-urbani1800
Z: 2014 John Chambers <jc:trillian.mit.edu>
M: 2/4
L: 1/8
K: G
|:\
DGGB | AGGg | dBBG | AEE2 |\
DGGB | AGg2 | dB d/c/B/A/ | G2 G2 ::\
gage | dBBg | dBBG | AEE2 |
gage | dBgb | agab | g2g2 ::\
bgdb | afda | gdBG | AEE2 |\
DGGB | AGg2 | dB d/c/B/A/ | G2 G2 :|

%%sep 1 1 500
%%sep 1 1 500
